X: 33689
T: Ramsfort Woods
R: march
M: 
K: Gmajor
M: 3/4
D>G|:B2 F2 AG|E2 D2 G>A|B3 d c>B|A4 D>G|
B2 F2 AG|E2 D2 G>A|Bd cA FD|1 G4 D>G:|2 G4 F>G||
A2 D2 G>A|B4 A>B|c2 E2 FD|d4 B>c|
d3 B cA|F2 D2 G>A|Bd cE FD|G4 F>G|
A2 D2 G>A|B2 D2 A>B|c2 E2 FD|d4>|B>c|
d3 B cA|F2 D2 G>A|Bd cE FD|G4||

